X:118
T: Engem anyám megátkozott...
M: 2/4
L: 1/8
K: F
gfdd | ffgd | 
ffgd | fdcB | 
fcBc | GGBF | 
Bcdf | cB GG | 

